apps/mobile/assets/icons/phosphor/paperclip.svg

<svg
  height="32"
  viewBox="0 0 256 256"
  width="32"
  xmlns="http://www.w3.org/2000/svg"
>
  <path
    d="m209.66 122.34a8 8 0 0 1 0 11.32l-82.05 82a56 56 0 0 1 -79.2-79.21l99.26-100.72a40 40 0 1 1 56.61 56.55l-99.28 100.72a24 24 0 1 1 -34-34l83.3-84.62a8 8 0 1 1 11.4 11.22l-83.31 84.71a8 8 0 1 0 11.27 11.36l99.27-100.67a24 24 0 1 0 -33.93-34l-99.24 100.68a40 40 0 1 0 56.53 56.62l82.06-82a8 8 0 0 1 11.31.04z"
  />
</svg>

<svg xmlns="http://www.w3.org/2000/svg" width="32" height="32" fill="#000000" viewBox="0 0 256 256"><path d="M209.66,122.34a8,8,0,0,1,0,11.32l-82.05,82a56,56,0,0,1-79.2-79.21L147.67,35.73a40,40,0,1,1,56.61,56.55L105,193A24,24,0,1,1,71,159L154.3,74.38A8,8,0,1,1,165.7,85.6L82.39,170.31a8,8,0,1,0,11.27,11.36L192.93,81A24,24,0,1,0,159,47L59.76,147.68a40,40,0,1,0,56.53,56.62l82.06-82A8,8,0,0,1,209.66,122.34Z"></path></svg>
